img/logo-white-sp.svg

<svg width="157" height="36" viewBox="0 0 157 36" fill="none" xmlns="http://www.w3.org/2000/svg">
<path d="M29.8619 18.0693C29.8619 22.4857 26.2685 26.0833 21.8479 26.0833C17.4273 26.0833 13.8338 22.4898 13.8338 18.0693C13.8338 13.6487 17.4273 10.0552 21.8479 10.0552V0.130371C11.9597 0.130371 3.91309 8.177 3.91309 18.0652C3.91309 27.9534 11.9597 36 21.8479 36C31.7361 36 39.7827 27.9534 39.7827 18.0652H29.8619V18.0693Z" fill="white"/>
<path d="M38.4502 0.00407328C28.562 -0.179268 20.3687 7.72069 20.1895 17.6089L30.1102 17.7922C30.1917 13.4246 33.7689 9.92485 38.1202 9.92485C38.1691 9.92485 38.218 9.92485 38.271 9.92485C42.6874 10.0063 46.2157 13.665 46.1342 18.0815C46.0528 22.498 42.3941 26.0303 37.9776 25.9448L37.7943 35.8656C37.9042 35.8656 38.0183 35.8656 38.1283 35.8656C47.8658 35.8656 55.8757 28.0349 56.055 18.2608C56.2384 8.37257 48.3384 0.179265 38.4502 0L38.4502 0.00407328Z" fill="white"/>
<path d="M103.34 24.9703C103.588 24.3675 103.935 23.8473 104.38 23.4097C104.835 22.9721 105.367 22.6336 105.978 22.3941C106.597 22.1547 107.279 22.0349 108.022 22.0349C108.509 22.0349 109.017 22.1051 109.545 22.2455C110.074 22.3859 110.528 22.5758 110.908 22.8152L110.709 23.8184C110.164 23.5459 109.673 23.3519 109.236 23.2363C108.806 23.1125 108.36 23.0505 107.898 23.0505C107.163 23.0505 106.511 23.2157 105.941 23.5459C105.38 23.868 104.942 24.318 104.628 24.8959C104.314 25.4657 104.158 26.1303 104.158 26.89C104.158 27.6661 104.314 28.339 104.628 28.9088C104.942 29.4785 105.38 29.9202 105.941 30.234C106.511 30.5478 107.18 30.7046 107.947 30.7046C108.402 30.7046 108.88 30.6427 109.384 30.5189C109.888 30.395 110.379 30.2216 110.858 29.9987L110.982 30.9895C110.008 31.4766 108.975 31.7202 107.886 31.7202C107.167 31.7202 106.507 31.6046 105.904 31.3734C105.309 31.134 104.793 30.8037 104.356 30.3826C103.918 29.9533 103.58 29.4496 103.34 28.8716C103.101 28.2854 102.981 27.6455 102.981 26.9519C102.981 26.2335 103.101 25.573 103.34 24.9703Z" fill="white"/>
<path d="M99.2678 22.1712H100.382V31.584H99.2678V22.1712Z" fill="white"/>
<path d="M88.199 22.1712H89.2765L95.0233 29.9615V22.1712H96.0512V31.584H94.9737L89.227 23.7936V31.584H88.199V22.1712Z" fill="white"/>
<path d="M83.8665 22.1712H84.9811V31.584H83.8665V22.1712Z" fill="white"/>
<path d="M75.7847 22.1712H76.8993V30.6303H81.519V31.584H75.7847V22.1712Z" fill="white"/>
<path d="M65.4226 24.9703C65.6704 24.3675 66.0171 23.8473 66.463 23.4097C66.9171 22.9721 67.4497 22.6336 68.0607 22.3941C68.68 22.1547 69.3612 22.0349 70.1043 22.0349C70.5914 22.0349 71.0992 22.1051 71.6277 22.2455C72.1561 22.3859 72.6102 22.5758 72.9901 22.8152L72.7919 23.8184C72.2469 23.5459 71.7557 23.3519 71.318 23.2363C70.8887 23.1125 70.4428 23.0505 69.9804 23.0505C69.2456 23.0505 68.5933 23.2157 68.0236 23.5459C67.4621 23.868 67.0245 24.318 66.7107 24.8959C66.397 25.4657 66.2401 26.1303 66.2401 26.89C66.2401 27.6661 66.397 28.339 66.7107 28.9088C67.0245 29.4785 67.4621 29.9202 68.0236 30.234C68.5933 30.5478 69.2621 30.7046 70.03 30.7046C70.4841 30.7046 70.963 30.6427 71.4667 30.5189C71.9703 30.395 72.4616 30.2216 72.9405 29.9987L73.0644 30.9895C72.0901 31.4766 71.0579 31.7202 69.968 31.7202C69.2497 31.7202 68.5892 31.6046 67.9864 31.3734C67.3919 31.134 66.8759 30.8037 66.4382 30.3826C66.0006 29.9533 65.6621 29.4496 65.4226 28.8716C65.1832 28.2854 65.0635 27.6455 65.0635 26.9519C65.0635 26.2335 65.1832 25.573 65.4226 24.9703Z" fill="white"/>
<path d="M151.135 4.47794H152.361L156.188 13.8907H154.987L153.872 11.0421H149.562L148.447 13.8907H147.308L151.135 4.47794ZM153.501 10.1132L151.717 5.55545L149.934 10.1132H153.501Z" fill="white"/>
<path d="M135.326 4.47794H136.441L140.057 11.2279L143.624 4.47794H144.739L145.197 13.8907H144.119L143.773 6.14995L140.528 12.293H139.537L136.28 6.24903L135.945 13.8907H134.868L135.326 4.47794Z" fill="white"/>
<path d="M127.714 4.47794H128.94L132.767 13.8907H131.566L130.451 11.0421H126.141L125.027 13.8907H123.887L127.714 4.47794ZM130.08 10.1132L128.296 5.55545L126.513 10.1132H130.08Z" fill="white"/>
<path d="M120.52 9.84076V13.8907H119.405V9.82837L115.863 4.47794H117.114L119.999 8.97379L122.898 4.47794H124.074L120.52 9.84076Z" fill="white"/>
<path d="M105.894 4.47794H107.009V9.92745C107.009 10.9596 107.248 11.744 107.727 12.2807C108.214 12.8091 108.925 13.0733 109.858 13.0733C110.791 13.0733 111.497 12.8091 111.975 12.2807C112.463 11.744 112.706 10.9596 112.706 9.92745V4.47794H113.821V10.0265C113.821 11.3063 113.466 12.3054 112.756 13.0238C112.054 13.7339 111.075 14.0889 109.82 14.0889C108.582 14.0889 107.616 13.7339 106.922 13.0238C106.237 12.3054 105.894 11.3063 105.894 10.0265V4.47794Z" fill="white"/>
<path d="M102.575 12.8132C102.303 13.2178 101.919 13.5316 101.423 13.7545C100.928 13.9774 100.338 14.0889 99.6523 14.0889C99.2972 14.0889 98.9339 14.0559 98.5624 13.9898C98.1908 13.9238 97.8358 13.8371 97.4972 13.7297C97.167 13.6141 96.8862 13.482 96.655 13.3334L96.7913 12.3054C97.1876 12.5449 97.6417 12.7389 98.1536 12.8875C98.6656 13.0361 99.1486 13.1105 99.6027 13.1105C100.296 13.1105 100.845 12.9618 101.25 12.6646C101.655 12.3673 101.857 11.9628 101.857 11.4508C101.857 11.1536 101.791 10.9017 101.659 10.6953C101.535 10.4889 101.312 10.299 100.99 10.1256C100.668 9.95221 100.218 9.77056 99.6399 9.58065C98.938 9.34946 98.3807 9.11001 97.9679 8.8623C97.555 8.6146 97.2619 8.32974 97.0885 8.00772C96.9151 7.6857 96.8284 7.29763 96.8284 6.84351C96.8284 6.32332 96.9564 5.87333 97.2124 5.49351C97.4766 5.10544 97.8399 4.80819 98.3023 4.60177C98.7647 4.38709 99.3055 4.27975 99.9247 4.27975C100.379 4.27975 100.841 4.34168 101.312 4.46553C101.783 4.58113 102.204 4.74627 102.575 4.96094L102.389 5.93938C102.026 5.7247 101.626 5.55957 101.188 5.44397C100.75 5.32012 100.329 5.25819 99.9247 5.25819C99.2972 5.25819 98.8059 5.39443 98.4509 5.6669C98.0958 5.93112 97.9183 6.29855 97.9183 6.76919C97.9183 7.04993 97.9761 7.28938 98.0917 7.48754C98.2073 7.67745 98.4096 7.85497 98.6986 8.02011C98.9958 8.17699 99.4046 8.34625 99.9247 8.5279C100.684 8.78386 101.287 9.04395 101.733 9.30817C102.179 9.57239 102.497 9.86964 102.687 10.1999C102.885 10.5302 102.984 10.9183 102.984 11.3641C102.984 11.9173 102.848 12.4004 102.575 12.8132Z" fill="white"/>
<path d="M90.2836 5.4316H87.0635V4.47794H94.6185V5.4316H91.3983V13.8907H90.2836V5.4316Z" fill="white"/>
<path d="M81.8261 4.47794H83.0522L86.8793 13.8907H85.6779L84.5632 11.0421H80.2531L79.1385 13.8907H77.999L81.8261 4.47794ZM84.1917 10.1132L82.4082 5.55545L80.6247 10.1132H84.1917Z" fill="white"/>
<path d="M66.0171 4.47794H67.1318L70.7483 11.2279L74.3152 4.47794H75.4299L75.8882 13.8907H74.8106L74.4638 6.14995L71.2189 12.293H70.2281L66.9708 6.24903L66.6364 13.8907H65.5588L66.0171 4.47794Z" fill="white"/>
</svg>

<svg xmlns="http://www.w3.org/2000/svg" width="157" height="36" fill="none"><path fill="#fff" d="M29.862 18.07c0 4.416-3.593 8.013-8.014 8.013s-8.014-3.593-8.014-8.014 3.593-8.014 8.014-8.014V.13C11.96.13 3.913 8.177 3.913 18.065S11.96 36 21.848 36s17.935-8.047 17.935-17.935h-9.921z"/><path fill="#fff" d="M38.45.004C28.562-.179 20.37 7.721 20.19 17.61l9.92.183c.082-4.367 3.659-7.867 8.01-7.867h.151c4.416.081 7.945 3.74 7.863 8.156s-3.74 7.95-8.156 7.864l-.184 9.92h.334c9.738 0 17.748-7.83 17.927-17.604C56.238 8.373 48.338.179 38.45 0zM103.34 24.97a4.6 4.6 0 0 1 1.04-1.56 4.8 4.8 0 0 1 1.598-1.016 5.6 5.6 0 0 1 2.044-.36q.73 0 1.523.212.793.21 1.363.57l-.199 1.002a8 8 0 0 0-1.473-.582 4.8 4.8 0 0 0-1.338-.186q-1.102 0-1.957.496a3.4 3.4 0 0 0-1.313 1.35q-.47.855-.47 1.994 0 1.164.47 2.019a3.33 3.33 0 0 0 1.313 1.325q.855.47 2.006.47.682 0 1.437-.185a8 8 0 0 0 1.474-.52l.124.99a6.8 6.8 0 0 1-3.096.731 5.5 5.5 0 0 1-1.982-.347 4.8 4.8 0 0 1-1.548-.99 4.5 4.5 0 0 1-1.016-1.511 5 5 0 0 1-.359-1.92q0-1.078.359-1.982M99.268 22.171h1.114v9.413h-1.114zM88.199 22.171h1.078l5.746 7.79v-7.79h1.028v9.413h-1.077l-5.747-7.79v7.79h-1.028zM83.867 22.171h1.114v9.413h-1.114zM75.785 22.171h1.114v8.46h4.62v.953h-5.734zM65.423 24.97a4.6 4.6 0 0 1 1.04-1.56 4.8 4.8 0 0 1 1.598-1.016q.928-.36 2.043-.36.73 0 1.524.212.792.21 1.362.57l-.198 1.002a8 8 0 0 0-1.474-.582 4.8 4.8 0 0 0-1.338-.186q-1.102 0-1.956.496-.843.483-1.313 1.35-.47.855-.47 1.994 0 1.164.47 2.019.47.854 1.313 1.325.855.47 2.006.47.681 0 1.437-.185a8 8 0 0 0 1.474-.52l.123.99a6.8 6.8 0 0 1-3.096.731 5.5 5.5 0 0 1-1.982-.347 4.8 4.8 0 0 1-1.548-.99 4.5 4.5 0 0 1-1.015-1.511 5 5 0 0 1-.36-1.92q0-1.078.36-1.982M151.135 4.478h1.226l3.827 9.413h-1.201l-1.115-2.849h-4.31l-1.115 2.849h-1.139zm2.366 5.635-1.784-4.558-1.783 4.558zM135.326 4.478h1.115l3.616 6.75 3.567-6.75h1.115l.458 9.413h-1.078l-.346-7.741-3.245 6.143h-.991l-3.257-6.044-.335 7.642h-1.077zM127.714 4.478h1.226l3.827 9.413h-1.201l-1.115-2.849h-4.31l-1.114 2.849h-1.14zm2.366 5.635-1.784-4.558-1.783 4.558zM120.52 9.84v4.05h-1.115V9.829l-3.542-5.35h1.251l2.885 4.496 2.899-4.496h1.176zM105.894 4.478h1.115v5.45q0 1.548.718 2.353.731.792 2.131.792t2.117-.792q.731-.805.731-2.354v-5.45h1.115v5.55q0 1.92-1.065 2.997-1.053 1.065-2.936 1.065-1.857 0-2.898-1.065-1.028-1.078-1.028-2.997zM102.575 12.813q-.408.608-1.152.941-.743.335-1.77.335-.534 0-1.09-.1a8 8 0 0 1-1.066-.26 4 4 0 0 1-.842-.396l.136-1.028q.594.36 1.363.582.768.224 1.449.223 1.04 0 1.647-.445.607-.447.607-1.214 0-.446-.198-.756-.186-.309-.669-.57t-1.35-.544q-1.054-.347-1.672-.719-.62-.37-.88-.854-.26-.483-.26-1.164 0-.78.384-1.35a2.53 2.53 0 0 1 1.09-.892q.694-.322 1.623-.322.68 0 1.387.186.706.173 1.263.495l-.186.978a4.7 4.7 0 0 0-1.201-.495 4.6 4.6 0 0 0-1.263-.186q-.942 0-1.474.409-.533.396-.533 1.102 0 .42.174.719.173.285.607.532a9 9 0 0 0 1.226.508q1.139.384 1.808.78t.954.892q.297.495.297 1.164 0 .83-.409 1.45M90.284 5.432h-3.22v-.954h7.555v.954h-3.22v8.459h-1.115zM81.826 4.478h1.226l3.827 9.413h-1.201l-1.115-2.849h-4.31l-1.115 2.849H78zm2.366 5.635-1.784-4.558-1.783 4.558zM66.017 4.478h1.115l3.616 6.75 3.567-6.75h1.115l.458 9.413h-1.077l-.347-7.741-3.245 6.143h-.99L66.97 6.249l-.335 7.642H65.56z"/></svg>
